X:1
T:Wye Valley, 65.65 D
T:Wye Valley, 65.65 D
T:James Mountain, 1876
T:Public Domain Courtesy of the Cyber Hymnal™
C:James Mountain, 1876
Z:Public Domain
Z:Courtesy of the Cyber Hymnal™
%%score ( 1 2 ) ( 3 4 )
L:1/8
M:4/4
K:F
V:1 treble 
V:2 treble 
V:3 bass 
V:4 bass 
V:1
 [CF]2 [CF]2 [CG]2 [CG]2 | [CA]4 [_Ec]4 | [DB]2 [FB]2 [CG]2 [CG]2 | [CA]8 | %4
 [CF]2 [CF]2 [CG]2 [CG]2 | [CA]4 [CF]4 | [CE]2 [CE]2 [A,D]2 [=B,D]2 | C8 | %8
 [Cc]2 [Fc]2 [Ec]2 [Fc]2 | [Fd]4 [Fc]4 | [FB]2 [EB]2 [FA]2 [FA]2 | [EG]8 | %12
 [FA]2 [FA]2 [EG]2 [EG]2 | [DF]4 [DG]4 | [CA]2 [FA]2 [DG]2 [EG]2 | [CF]8 |] %16
V:2
 x8 | x8 | x8 | x8 | x8 | x8 | x8 | C8 | x8 | x8 | x8 | x8 | x8 | x8 | x8 | x8 |] %16
V:3
 [F,A,]2 [F,A,]2 [E,G,]2 [E,G,]2 | F,4 [A,,F,]4 | [B,,F,]2 [B,,D,]2 [C,E,]2 [C,E,]2 | [F,,F,]8 | %4
 [F,A,]2 [F,A,]2 [E,G,]2 [E,G,]2 | F,4 [A,,F,]4 | [G,,G,]2 [G,,G,]2 [G,,F,]2 [G,,F,]2 | [C,E,]8 | %8
 [F,A,]2 [F,A,]2 [G,B,]2 [A,C]2 | B,4 [A,C]4 | [G,D]2 [G,C]2 [F,C]2 [F,C]2 | [C,C]8 | %12
 [F,C]2 [F,C]2 [^C,B,]2 [C,B,]2 | [D,A,]4 (G,2 F,2) | [C,F,]2 [C,A,]2 [C,C]2 [C,B,]2 | [F,A,]8 |] %16
V:4
 x8 | x8 | x8 | x8 | x8 | x8 | x8 | x8 | x8 | x8 | x8 | x8 | x8 | x4 =B,,4 | x8 | x8 |] %16

